assets/images/laravel.svg

<svg width="24" height="24" viewBox="0 0 24 24" fill="none" xmlns="http://www.w3.org/2000/svg">
<g clip-path="url(#clip0_3300_12001)">
<path d="M23.6432 5.42976C23.6507 5.46126 23.6553 5.49651 23.6553 5.52726V10.6798C23.6554 10.7455 23.6382 10.8101 23.6052 10.8671C23.5723 10.924 23.5249 10.9711 23.4678 11.0038L19.1432 13.496V18.4295C19.1434 18.4953 19.1262 18.5599 19.0932 18.6168C19.0603 18.6737 19.0129 18.7209 18.9557 18.7535L9.92875 23.9488C9.90768 23.9604 9.88527 23.9695 9.862 23.9758L9.83875 23.9878C9.77597 24.0035 9.71028 24.0035 9.6475 23.9878C9.63802 23.9849 9.62895 23.9809 9.6205 23.9758C9.59883 23.969 9.57796 23.96 9.55825 23.9488L0.535 18.7535C0.477507 18.721 0.429571 18.674 0.396003 18.6171C0.362434 18.5602 0.344414 18.4955 0.34375 18.4295V2.97276C0.34375 2.94126 0.35125 2.90601 0.3595 2.87526C0.36325 2.86326 0.367 2.85576 0.3715 2.84376L0.39475 2.78526C0.3985 2.77326 0.4105 2.76576 0.418 2.75376L0.45325 2.70651C0.465876 2.69871 0.477685 2.68967 0.4885 2.67951C0.50425 2.66751 0.5155 2.65626 0.53125 2.64801L5.04325 0.0500096C5.10031 0.0172426 5.16495 0 5.23075 0C5.29655 0 5.36119 0.0172426 5.41825 0.0500096L9.934 2.64801C9.94975 2.65551 9.961 2.66751 9.973 2.67951L10.012 2.70651C10.0235 2.72155 10.0341 2.73733 10.0435 2.75376C10.051 2.76126 10.063 2.77326 10.0705 2.78526L10.0938 2.84376C10.0975 2.85576 10.1058 2.86326 10.1058 2.87526C10.1171 2.90647 10.1224 2.93956 10.1215 2.97276V12.6253L13.879 10.4615V5.52801C13.8804 5.48369 13.8898 5.43999 13.9068 5.39901L13.93 5.34051C13.9375 5.32476 13.9495 5.31726 13.957 5.30526C13.969 5.28951 13.9765 5.27376 13.9885 5.26251C14.0005 5.25126 14.0155 5.24301 14.0275 5.23551C14.0388 5.22302 14.0519 5.21239 14.0665 5.20401L18.5823 2.60601C18.6387 2.57139 18.7036 2.55307 18.7698 2.55307C18.8359 2.55307 18.9008 2.57139 18.9573 2.60601L23.4693 5.20401C23.485 5.21151 23.4963 5.22351 23.512 5.23551C23.524 5.24301 23.5353 5.25126 23.5473 5.26251C23.5593 5.27376 23.5705 5.28951 23.5825 5.30526C23.59 5.31726 23.602 5.32476 23.6058 5.34051C23.6178 5.36001 23.6215 5.37951 23.629 5.39901C23.6365 5.40651 23.641 5.41851 23.6448 5.43051L23.6432 5.42976ZM22.9007 10.4608V6.17976L21.3228 7.08576L19.1432 8.34351V12.6245L22.9007 10.4608ZM18.3932 18.2105V13.925L16.2445 15.1475L10.1193 18.6478V22.9723L18.3932 18.2105ZM1.09225 3.62451V18.2105L9.3655 22.9723V18.6478L5.041 16.1983C5.02525 16.1908 5.014 16.1788 5.002 16.1668C4.99 16.1593 4.975 16.151 4.96675 16.1398H4.963C4.951 16.1278 4.9435 16.1128 4.9315 16.1008C4.924 16.0888 4.912 16.0775 4.9045 16.0618C4.89577 16.047 4.8892 16.0311 4.885 16.0145C4.8775 15.9988 4.86925 15.9875 4.8655 15.9718C4.86175 15.956 4.858 15.9365 4.858 15.917C4.85425 15.9013 4.8505 15.89 4.8505 15.8743V5.78826L2.671 4.53051L1.09225 3.62451ZM5.22925 0.80826L1.47175 2.97201L5.22925 5.13576L8.98675 2.97201L5.22925 0.80826ZM7.186 14.3165L9.3655 13.0588V3.62526L7.7875 4.53126L5.60425 5.78901V15.2225L7.186 14.3165ZM18.7682 3.36276L15.0063 5.52651L18.7682 7.69026L22.5257 5.52651L18.7682 3.36276ZM18.3932 8.34351L14.6313 6.17976V10.4608L16.8108 11.7185L18.3925 12.6245L18.3932 8.34351ZM9.74125 17.996L18.0108 13.277L14.257 11.1133L5.99125 15.8713L9.74125 17.996Z" fill="#626262"/>
</g>
<defs>
<clipPath id="clip0_3300_12001">
<rect width="24" height="24" fill="white"/>
</clipPath>
</defs>
</svg>

<svg width="24" height="24" viewBox="0 0 24 24" fill="none" xmlns="http://www.w3.org/2000/svg"><g clip-path="url(#a)"><path d="M23.643 5.43a.439.439 0 0 1 .012.097v5.153a.373.373 0 0 1-.187.324l-4.325 2.492v4.934a.37.37 0 0 1-.187.323L9.929 23.95a.302.302 0 0 1-.067.027l-.023.012a.394.394 0 0 1-.191 0 .12.12 0 0 1-.027-.012.32.32 0 0 1-.063-.027L.535 18.753a.376.376 0 0 1-.191-.323V2.973c0-.032.007-.067.016-.098.003-.012.007-.02.012-.031l.023-.059c.004-.012.015-.02.023-.031l.035-.047a.221.221 0 0 0 .035-.027c.016-.012.027-.024.043-.032L5.043.05a.376.376 0 0 1 .375 0l4.516 2.598c.016.008.027.02.039.032l.039.027c.011.015.022.03.031.047.008.007.02.02.027.031l.024.059c.004.012.012.02.012.031a.265.265 0 0 1 .015.098v9.652l3.758-2.164V5.528a.367.367 0 0 1 .028-.129l.023-.058c.008-.016.02-.024.027-.036.012-.015.02-.031.031-.042a.188.188 0 0 1 .04-.027.16.16 0 0 1 .038-.032l4.516-2.598a.358.358 0 0 1 .375 0l4.512 2.598c.016.008.027.02.043.032a.221.221 0 0 1 .035.027c.012.01.023.027.035.042.008.012.02.02.024.036.012.019.015.039.023.058a.08.08 0 0 1 .016.032l-.002-.001Zm-.742 5.03V6.18l-1.578.906-2.18 1.258v4.28l3.758-2.163Zm-4.508 7.75v-4.285l-2.149 1.223-6.125 3.5v4.324l8.274-4.762ZM1.093 3.625V18.21l8.273 4.762v-4.324l-4.325-2.45c-.016-.007-.027-.02-.039-.031-.012-.008-.027-.016-.035-.027h-.004c-.012-.012-.02-.027-.032-.04-.007-.011-.019-.023-.027-.038a.18.18 0 0 1-.019-.047c-.007-.016-.016-.027-.02-.043a.242.242 0 0 1-.007-.055c-.004-.016-.007-.027-.007-.043V5.788L2.67 4.531l-1.579-.906ZM5.228.808 1.472 2.972l3.757 2.164 3.758-2.164L5.229.808Zm1.957 13.508 2.18-1.257V3.625l-1.579.906L5.604 5.79v9.433l1.582-.905ZM18.768 3.364l-3.762 2.164 3.762 2.163 3.758-2.163-3.758-2.164Zm-.375 4.98L14.631 6.18v4.28l2.18 1.258 1.581.906.001-4.28Zm-8.652 9.653 8.27-4.719-3.754-2.164-8.266 4.758 3.75 2.125Z" fill="#626262"/></g><defs><clipPath id="a"><path fill="#fff" d="M0 0h24v24H0z"/></clipPath></defs></svg>
